!!!OTL: "Engellied zu Weihnachten" IHR HIRTEN ERWACHT
!!!ARE: Europa, Mitteleuropa, Deutschland, Sued - Deutschland
!!!SCT: Z1125
!!!YEM: Copyright 1995, estate of Helmut Schaffrath.
**kern
*ICvox
*Ivox
*M2/4
*k[b-]
*F:
{4cc
=1
4ff
8dd
8dd
=2
8.cc
16dd
8cc}
{8b-
=3
4a
8a
8g
=4
4f}
{4g
=5
8.a
16b-
8cc
8b-
=6
16a
16b-
4cc}
{8b-
=7
8.a
16b-
8cc
8b-
=8
16a
16b-
4cc}
{8cc
=9
4ff
8.dd
16cc
=10
8.cc
16dd
8cc}
{8b-
=11
4a
8a
8g
=12
4f}
==
!!!AGN: religioeses Lied, Weihnachts - Lied
!!!ONB: ESAC (Essen Associative Code) Database: ZUCCAL
!!!AMT: simple duple
!!!AIN: vox
!!!EED: Helmut Schaffrath
!!!EEV: 1.0
*-
